!!!!SEGMENT: pl-wtm--r-2139--005_wysocki-kasper-napoleon--la-legerte-n-5.krn
!!!cenid: 18xx:4372
!!!COM: Wysocki, Kasper Napoleon
!!!COM-rismID: pe41024789
!!!CDT: 1810/12/06-1850/09/21
!!!CNT: Polish
!!!GTL: La Légèrté
!!!OTL: N. 5.
!!!OMV: 005
!!!PDT:
!!!AGN: Secular; Waltz
!!!SMS-siglum: PL-Wtm
!!!SMS-shelfmark: R 2139
!!!SMS-shelfwork: 001-005 G
!!!SMS-variant:
!!!SMS-altvar:
!!!NIFC-rismSourceID: 1001139896
!!!NIFC-rismChildID: 1001139903
!!!NIFC-islandoraID: pl-wtm:29947
!!!URL-pdf-islandora: https://repozytorium.nifc.pl/islandora/object/pl-wtm:29947/datastream/PDF/view
!!!URL-scan: https://polish.musicsources.pl/pl/lokalizacje/galeria/rekopisy/6569/3 @EN{Scan on Polish Music Sources Website} @PL{Skany w portalu Dziedzictwo Muzyki Polskiej w otwartym dostępie}
!!!ONB-nifc: UWAGA: skan 3-4
!!!AIN: 2 piano
!!!key: G
!!!OMD: N. 5.
**kern	**kern	**dynam
*part2	*part1	*part1
*staff2	*staff1	*
*>[A,A,B,B]	*>[A,A,B,B]	*>[A,A,B,B]
*>A	*>A	*>A
*I"fortepian	*I"fortepian	*
*Ipiano	*Ipiano	*
*ICklav	*ICklav	*
*clefF4	*clefG2	*
*k[f#]	*k[f#]	*
*G:	*G:	*
*M3/4	*M3/4	*
*	*8va	*
!	!LO:TX:b:i:t=dol	!
4r	8ddd\L	.
.	8ddd\J	.
=1	=1	=1
*ped	*	*
!	!	!LO:DY:t=p.
4GG/	8ddd\L	p
.	8bb\	.
4B 4G\	8bb\	.
.	8ddd\	.
4D\	8eee\	.
.	8ddd\J	.
=2	=2	=2
!	!LO:TX:t=P:problem:mixed beam	!
4DD/	8ccc\L	.
.	8dd/	.
4c 4A 4F#\	8dd/	.
.	8dd/	.
4D\	8ccc\	.
.	8ccc\J	.
=3	=3	=3
*rep	*	*
4DD/	8ccc\L	.
.	8aa\	.
4c 4A 4F#\	8aa\	.
.	8ccc\	.
4D\	8eee\	.
.	8ddd\J	.
*Xrep	*	*
=4	=4	=4
4GG/	8bb/L	.
.	8dd/	.
4B 4G\	8dd/	.
.	8dd/	.
4D\	8bb/	.
.	8bb/J	.
=5	=5	=5
*rep	*	*
4GG/	8bb\L	<
.	8gg\	.
4B 4G\	8bb\	.
.	8ddd\	.
4D\	8aaa\	[
.	8ggg\J	.
*Xrep	*	*
*Xped	*	*
!!LO:PB:g=original
=6	=6	=6
*^	*	*
*	*2\right	*	*
4r	2.C\	8aa\L	.
.	.	8aa\	.
4c 4A 4E/	.	8aa\	.
.	.	8aa\	.
4c 4A 4E/	.	8ccc\	.
.	.	8eee\J	.
=7	=7	=7	=7
4r	2.D\	8ddd\L	.
.	.	8ddd\	.
4B 4G/	.	8ddd\	.
.	.	8gg\	.
4c 4A 4D\	.	8bb 8ff#\	.
.	.	8aa\J	.
*v	*v	*	*
=8	=8	=8
4B 4G\	4gg/	.
4GG/	4r	.
*	*X8va	*
=:|!|:	=:|!|:	=:|!|:
*>B	*>B	*>B
!	!LO:TX:a:t=loco	!
4r	8a/L	.
.	8a/J	.
=9	=9	=9
*^	*	*
4r	2.AA\	8aa\L	.
.	.	8aa\	.
4A 4F# 4D/	.	8aa\	.
.	.	8ff#\	.
4A 4F# 4D/	.	8bb\	.
.	.	8aa\J	.
=10	=10	=10	=10
4r	2.AA\	8gg\L	.
.	.	8a\	.
4A 4G 4E/	.	8a\	.
.	.	8a\	.
4A 4G 4E/	.	8gg 8cc#X\	.
.	.	8a\J	.
=11	=11	=11	=11
4r	2.AA\	8gg\L	.
.	.	8gg\	.
4A 4E 4C#X/	.	8gg\	.
.	.	8ee\	.
4A 4E 4C#/	.	8bb\	.
.	.	8aa\J	.
!!LO:LB:g=original
=12	=12	=12	=12
4r	2.D\	8ff#\L	.
.	.	8a\	.
4d 4A 4F#/	.	8a\	.
.	.	8a\	.
4d 4A 4F#/	.	8ff# 8dd\	.
.	.	8a\J	.
=13	=13	=13	=13
*rep	*rep	*	*
4r	2.D\	8ff#\L	.
.	.	8ff#\	.
4d 4A 4F#/	.	8ff#\	.
.	.	8dd\	.
4d 4A 4F#/	.	8eee\	.
.	.	8ddd\J	.
*Xrep	*Xrep	*	*
=14	=14	=14	=14
4r	2.GG\	8ee\L	.
.	.	8ee\	.
4G 4E 4BB/	.	8ee\	.
.	.	8ee\	.
4G 4E 4BB/	.	8gg\	.
.	.	8bb\J	.
=15	=15	=15	=15
4r	2.AA\	8aa\L	.
.	.	8aa\	.
4A 4F# 4D/	.	8aa\	.
.	.	8dd\	.
4G 4AA/	.	8ff# 8cc#X\	.
.	.	8ee\J	.
*v	*v	*	*
=16	=16	=16
4A 4F# 4D\	4dd\	.
4DD/	4r	.
=:|!	=:|!	=:|!
*-	*-	*-
!!!system-decoration: {(*)}
!!!ENC: Filip Voros
!!!END: 2023-07-12
!!!ENC: Marta Lawrence
!!!END: 2023-07-21
!!!YEC: Copyright 2022 Narodowy Instytut Fryderyka Chopina (https://polishscores.org)
!!!YEM: License CC-BY-4.0 (https://creativecommons.org/licenses/by/4.0)
